X:16
T:Lass of Gowry,The. AJH.016
M:2/4
L:1/8
Q:1/4=140
S:A.J.Hughes MS
N:There is a space for a second voice which has not been entered in MS.
N:The tune in D is followed by lines in G marked “No1”
O:England
A:North Shropshire
Z:Neil Brookes 2006
K:D
A/G/|FAA B/c/|d/c/d/e/ dc/B/|B>ABd|cee A/G/|!
FAA B/c/|d/c/d/e/ [fd][f/d/][e/c/]|d/c/B/A/ dF|E2d::!
a/g/|fade|f/e/f/g/ ag/f/|gb ef|g/f/g/a/ ba/g/|!
f<ae<f|d/c/d/e/ f/e/|d/c/B/A/dF|E2d:|

